src/images/partner2.svg

<svg fill="none" height="37" viewBox="0 0 253 37" width="253" xmlns="http://www.w3.org/2000/svg"><g clip-rule="evenodd" fill="#000" fill-rule="evenodd"><path d="m47.7988 12.4004h23.2v-12.000009h-23.2z"/><path d="m.599609.400391v12.000609h11.733291v23.9994h11.7334v-23.9994h11.7333v-12.000609z"/><path d="m35.7988 12.4004v24h11.7331 23.4669v-12.0009h-23.4669v-11.9991z"/><path d="m101.399 9.2002h-17.6002v5.0213h5.8872v15.7787h5.8266v-15.7787h5.8864z"/><path d="m105.844 20.3959c.178-1.512.856-2.3262 2.064-2.3262 1.562 0 2.094.7857 2.358 2.3262zm2.211-6.1928c-4.068 0-7.075 2.7035-7.075 7.9667 0 4.6807 2.564 7.9373 7.222 7.9373 2.418 0 4.394-.6401 6.31-1.7446l-2.034-3.3436c-1.534.7848-2.653 1.076-4.009 1.076-1.445 0-2.447-.7564-2.625-2.4424h9.081c.029-.2611.029-.5816.029-1.0175 0-5.6698-2.653-8.4319-6.899-8.4319z"/><path d="m125.007 25.8623c-1.444 0-2.181-1.2501-2.181-3.6632 0-2.4132.678-3.7503 2.034-3.7503 1.149 0 1.651.6392 2.388 1.9764l3.655-2.7328c-1.356-2.1513-3.037-3.4893-5.955-3.4893-4.952 0-7.37 3.2273-7.37 7.9081 0 5.1468 2.713 7.9968 7.252 7.9968 2.743 0 4.422-1.0184 6.221-3.6348l-3.361-2.5881c-.973 1.425-1.681 1.9772-2.683 1.9772z"/><path d="m143.286 14.203c-1.829 0-2.92.6108-3.892 1.338v-6.9492l-5.306 2.0935v19.1029h5.306v-8.723c0-1.9196.678-2.4425 1.799-2.4425 1.091 0 1.769.5229 1.769 2.5002v8.6653h5.335v-9.3339c0-4.0122-1.621-6.2513-5.011-6.2513z"/><path d="m161.092 25.1933c-2.476 0-3.478-2.4709-3.478-5.5828 0-3.2273 1.03-5.5819 3.42-5.5819 1.887 0 2.593 1.1924 3.331 3.0817l5.189-2.0057c-1.416-3.8381-3.42-5.98937-8.491-5.98937-5.543 0-9.434 3.95357-9.434 10.49527 0 6.0196 3.272 10.497 9.405 10.497 4.893 0 7.193-2.5881 8.578-5.2623l-4.835-2.5303c-1.12 1.9195-1.886 2.8784-3.685 2.8784z"/><path d="m178.131 15.6281v-1.1053h-5.307v15.2656h5.307v-8.3165c0-1.8609.796-2.4717 2.093-2.4717 1.032 0 1.798.5531 2.477 1.2794l1.238-5.4364c-.62-.379-1.386-.6401-2.506-.6401-1.356 0-2.388.5523-3.302 1.425z"/><path d="m195.346 23.2455c0 1.9195-.677 2.4425-1.768 2.4425s-1.769-.523-1.769-2.5002v-8.6653h-5.336v9.3339c0 4.0122 1.621 6.2513 5.012 6.2513 1.799 0 2.919-.6108 3.861-1.338v1.0184h5.337v-15.2656h-5.337z"/><path d="m213.743 14.2031c-1.828 0-2.918.6109-3.891 1.338v-1.0183h-5.307v15.2656h5.307v-8.7231c0-1.9195.678-2.4425 1.798-2.4425 1.092 0 1.769.523 1.769 2.5002v8.6654h5.336v-9.334c0-4.0121-1.621-6.2513-5.012-6.2513z"/><path d="m229.309 25.8623c-1.444 0-2.182-1.2501-2.182-3.6632 0-2.4132.677-3.7503 2.034-3.7503 1.15 0 1.652.6392 2.388 1.9764l3.655-2.7328c-1.356-2.1513-3.036-3.4893-5.954-3.4893-4.953 0-7.371 3.2273-7.371 7.9081 0 5.1468 2.713 7.9968 7.253 7.9968 2.742 0 4.422-1.0184 6.221-3.6348l-3.362-2.5881c-.972 1.425-1.68 1.9772-2.682 1.9772z"/><path d="m247.586 14.203c-1.827 0-2.918.6108-3.89 1.338v-6.9492l-5.307 2.0935v19.1029h5.307v-8.723c0-1.9196.677-2.4425 1.797-2.4425 1.092 0 1.769.5229 1.769 2.5002v8.6653h5.336v-9.3339c0-4.0122-1.62-6.2513-5.012-6.2513z"/></g></svg>

<svg width="253" height="37" viewBox="0 0 253 37" fill="none" xmlns="http://www.w3.org/2000/svg">
<path fill-rule="evenodd" clip-rule="evenodd" d="M47.7988 12.4004H70.9988V0.400391H47.7988V12.4004Z" fill="#231F20"/>
<path fill-rule="evenodd" clip-rule="evenodd" d="M0.599609 0.400391V12.401H12.3329V36.4004H24.0663V12.401H35.7996V0.400391H0.599609Z" fill="#231F20"/>
<path fill-rule="evenodd" clip-rule="evenodd" d="M35.7988 12.4004V36.4004H47.5319H70.9988V24.3995H47.5319V12.4004H35.7988Z" fill="#231F20"/>
<path fill-rule="evenodd" clip-rule="evenodd" d="M101.399 9.2002H83.7988V14.2215H89.686V30.0002H95.5126V14.2215H101.399V9.2002Z" fill="#231F20"/>
<path fill-rule="evenodd" clip-rule="evenodd" d="M105.844 20.3959C106.022 18.8839 106.7 18.0697 107.908 18.0697C109.47 18.0697 110.002 18.8554 110.266 20.3959H105.844ZM108.055 14.2031C103.987 14.2031 100.98 16.9066 100.98 22.1698C100.98 26.8505 103.544 30.1071 108.202 30.1071C110.62 30.1071 112.596 29.467 114.512 28.3625L112.478 25.0189C110.944 25.8037 109.825 26.0949 108.469 26.0949C107.024 26.0949 106.022 25.3385 105.844 23.6525H114.925C114.954 23.3914 114.954 23.0709 114.954 22.635C114.954 16.9652 112.301 14.2031 108.055 14.2031Z" fill="#231F20"/>
<path fill-rule="evenodd" clip-rule="evenodd" d="M125.007 25.8623C123.563 25.8623 122.826 24.6122 122.826 22.1991C122.826 19.7859 123.504 18.4488 124.86 18.4488C126.009 18.4488 126.511 19.088 127.248 20.4252L130.903 17.6924C129.547 15.5411 127.866 14.2031 124.948 14.2031C119.996 14.2031 117.578 17.4304 117.578 22.1112C117.578 27.258 120.291 30.108 124.83 30.108C127.573 30.108 129.252 29.0896 131.051 26.4732L127.69 23.8851C126.717 25.3101 126.009 25.8623 125.007 25.8623Z" fill="#231F20"/>
<path fill-rule="evenodd" clip-rule="evenodd" d="M143.286 14.203C141.457 14.203 140.366 14.8138 139.394 15.541V8.5918L134.088 10.6853V29.7882H139.394V21.0652C139.394 19.1456 140.072 18.6227 141.193 18.6227C142.284 18.6227 142.962 19.1456 142.962 21.1229V29.7882H148.297V20.4543C148.297 16.4421 146.676 14.203 143.286 14.203Z" fill="#231F20"/>
<path fill-rule="evenodd" clip-rule="evenodd" d="M161.092 25.1933C158.616 25.1933 157.614 22.7224 157.614 19.6105C157.614 16.3832 158.644 14.0286 161.034 14.0286C162.921 14.0286 163.627 15.221 164.365 17.1103L169.554 15.1046C168.138 11.2665 166.134 9.11523 161.063 9.11523C155.52 9.11523 151.629 13.0688 151.629 19.6105C151.629 25.6301 154.901 30.1075 161.034 30.1075C165.927 30.1075 168.227 27.5194 169.612 24.8452L164.777 22.3149C163.657 24.2344 162.891 25.1933 161.092 25.1933Z" fill="#231F20"/>
<path fill-rule="evenodd" clip-rule="evenodd" d="M178.131 15.6281V14.5228H172.824V29.7884H178.131V21.4719C178.131 19.611 178.927 19.0002 180.224 19.0002C181.256 19.0002 182.022 19.5533 182.701 20.2796L183.939 14.8432C183.319 14.4642 182.553 14.2031 181.433 14.2031C180.077 14.2031 179.045 14.7554 178.131 15.6281Z" fill="#231F20"/>
<path fill-rule="evenodd" clip-rule="evenodd" d="M195.346 23.2455C195.346 25.165 194.669 25.688 193.578 25.688C192.487 25.688 191.809 25.165 191.809 23.1878V14.5225H186.473V23.8564C186.473 27.8686 188.094 30.1077 191.485 30.1077C193.284 30.1077 194.404 29.4969 195.346 28.7697V29.7881H200.683V14.5225H195.346V23.2455Z" fill="#231F20"/>
<path fill-rule="evenodd" clip-rule="evenodd" d="M213.743 14.2031C211.915 14.2031 210.825 14.814 209.852 15.5411V14.5228H204.545V29.7884H209.852V21.0653C209.852 19.1458 210.53 18.6228 211.65 18.6228C212.742 18.6228 213.419 19.1458 213.419 21.123V29.7884H218.755V20.4544C218.755 16.4423 217.134 14.2031 213.743 14.2031Z" fill="#231F20"/>
<path fill-rule="evenodd" clip-rule="evenodd" d="M229.309 25.8623C227.865 25.8623 227.127 24.6122 227.127 22.1991C227.127 19.7859 227.804 18.4488 229.161 18.4488C230.311 18.4488 230.813 19.088 231.549 20.4252L235.204 17.6924C233.848 15.5411 232.168 14.2031 229.25 14.2031C224.297 14.2031 221.879 17.4304 221.879 22.1112C221.879 27.258 224.592 30.108 229.132 30.108C231.874 30.108 233.554 29.0896 235.353 26.4732L231.991 23.8851C231.019 25.3101 230.311 25.8623 229.309 25.8623Z" fill="#231F20"/>
<path fill-rule="evenodd" clip-rule="evenodd" d="M247.586 14.203C245.759 14.203 244.668 14.8138 243.696 15.541V8.5918L238.389 10.6853V29.7882H243.696V21.0652C243.696 19.1456 244.373 18.6227 245.493 18.6227C246.585 18.6227 247.262 19.1456 247.262 21.1229V29.7882H252.598V20.4543C252.598 16.4421 250.978 14.203 247.586 14.203Z" fill="#231F20"/>
</svg>
